src/next/cmd/sc_insertendnote.svg

<svg height="16" width="16" xmlns="http://www.w3.org/2000/svg" xmlns:xlink="http://www.w3.org/1999/xlink"><filter id="a"><feGaussianBlur stdDeviation="1.0394514"/></filter><filter id="b"><feGaussianBlur stdDeviation=".50063244"/></filter><radialGradient id="c" cx="110" cy="116.304705" gradientUnits="userSpaceOnUse" r="139.5585"><stop offset="0" stop-color="#00537d"/><stop offset=".0151" stop-color="#186389"/><stop offset=".0558" stop-color="#558ca8"/><stop offset=".0964" stop-color="#89afc3"/><stop offset=".1357" stop-color="#b3ccd8"/><stop offset=".1737" stop-color="#d4e2e9"/><stop offset=".2099" stop-color="#ecf2f5"/><stop offset=".2435" stop-color="#fafcfd"/><stop offset=".2722" stop-color="#fff"/></radialGradient><radialGradient id="d" cx="102" cy="112.3047" gradientTransform="matrix(.9787234 0 0 1.0334928 9.361704 .382782)" gradientUnits="userSpaceOnUse" r="139.55859"><stop offset="0" stop-color="#535557"/><stop offset=".11366145" stop-color="#898a8c"/><stop offset=".20296688" stop-color="#ececec"/><stop offset=".2363" stop-color="#fafafa"/><stop offset=".2722" stop-color="#fff"/><stop offset=".5313" stop-color="#fafafa"/><stop offset=".8449" stop-color="#ebecec"/><stop offset="1" stop-color="#e1e2e3"/></radialGradient><filter id="e" height="1.247155" width="1.247155" x="-.123577" y="-.123577"><feGaussianBlur stdDeviation="1.7720846"/></filter><filter id="f"><feGaussianBlur stdDeviation=".90565481"/></filter><linearGradient id="g" gradientUnits="userSpaceOnUse" x1="85.219681" x2="61.336319" y1="93.219681" y2="69.336319"><stop offset="0"/><stop offset="1" stop-color="#393b38"/></linearGradient><filter id="h"><feGaussianBlur stdDeviation=".4901192"/></filter><linearGradient id="i" gradientUnits="userSpaceOnUse" x1="96" x2="88.000198" y1="104" y2="96.000198"><stop offset="0" stop-color="#888a85"/><stop offset=".0072" stop-color="#8c8e89"/><stop offset=".0673" stop-color="#abaca9"/><stop offset=".1347" stop-color="#c5c6c4"/><stop offset=".2115" stop-color="#dbdbda"/><stop offset=".3012" stop-color="#ebebeb"/><stop offset=".4122" stop-color="#f7f7f6"/><stop offset=".5679" stop-color="#fdfdfd"/><stop offset="1" stop-color="#fff"/></linearGradient><linearGradient id="j" gradientTransform="matrix(1.6875097 0 0 1.0285714 -170.44191 9.516101)" gradientUnits="userSpaceOnUse" x1="154.82304" x2="154.82304" y1="107.4149" y2="122.97046"><stop offset="0" stop-color="#4c78fd"/><stop offset="1" stop-color="#85a2fe"/></linearGradient><linearGradient id="k" gradientTransform="matrix(0 -1 1 0 -224.907356 195.628664)" gradientUnits="userSpaceOnUse" x1="-.371336" x2="179.62866" y1="236.90735" y2="292.90735"><stop offset="0" stop-color="#8e79b9"/><stop offset="1" stop-color="#462886"/></linearGradient><linearGradient id="l" gradientUnits="userSpaceOnUse" x1="48" x2="28" y1="48.000005" y2="48.000005"><stop offset="0" stop-color="#fff"/><stop offset="1" stop-color="#fff" stop-opacity="0"/></linearGradient><g transform="scale(.125)"><path d="m30.68 5.1379311.04082 96.5517289h53.45118c.53 0 1.039-.211 1.414-.586l32.828-32.828005c.375-.375.586-.884.586-1.414v-61.7237239z" filter="url(#a)" opacity=".715069" transform="matrix(1.0416667 0 0 1.0357143 -1.958333 .678466)"/><path d="m32.6 6.1034483.04082 95.5862117h51.53118c.53 0 1.039-.211 1.414-.586 13.296921-8.210615 24.14086-19.267845 32.828-32.828005.375-.375.586-.884.586-1.414v-60.7582067z" fill="#757575" filter="url(#a)" opacity=".835616" transform="matrix(1.0416667 0 0 1.0357143 -1.958333 .678466)"/><path d="m32 96.000005h52v4.000005h-52z" fill="#8e8e8e"/><path d="m32.599999 10.931136v86.896555l50.996001-.0001c.53 0 1.039-.211 1.414-.586l31.484-31.765936c.375-.375.586-.884.586-1.414v-53.130519z" filter="url(#b)" opacity=".89589" transform="matrix(1.0416667 0 0 1.0357143 -1.958333 .678466)"/><path d="m32.000002 8v96.00001h53.172c.53 0 1.039-.211 1.414-.586l32.827998-32.82801c.375-.375.586-.884.586-1.414v-61.172z" fill="url(#c)"/><path d="m40.678725 16.000005c-.539276 0-.978723.464038-.978723 1.033493l.3 77.933012c0 .570495.439447 1.033495.978723 1.033495h43.913022c.257404 0 .509915-.109547.691957-.302811l26.129526-27.611719c.18303-.193263.28677-.45887.28677-.730679v-50.321298c0-.569455-.43847-1.033493-.97872-1.033493z" fill="url(#d)" stroke-width="1.025978"/><path d="m48 36h52v4h-52z" fill="#8e8e8e" stroke-width=".901388"/><path d="m48 16h52v12h-52z" fill="#f60"/><path d="m62.9095 112h49.0905v16h-49.0905z" fill="url(#j)" stroke-width="1.150449"/><g fill="#8e8e8e" stroke-width=".901388"><path d="m48 52h52v4h-52z"/><path d="m48 68h52v4h-52z"/><path d="m48 84h46.511107v4h-46.511107z"/></g><g transform="translate(8.000002 -17.999999)"><path d="m111.414 86.586c.25-.25-26.379-1.586-31.414-1.586-1.654 0-3 1.346-3 3 0 5.035 1.336 31.664 1.586 31.414z" filter="url(#e)" opacity=".906849"/><path d="m111.414 86.586c.375-.375-21.97-.586-31.414-.586-1.103 0-2 .897-2 2 0 9.444.211 31.789.586 31.414z" filter="url(#f)" opacity=".2"/><path d="m111.414 86.586c.239-.239-21.607.414-31.414.414-.553 0-1 .447-1 1 0 9.807-.653 31.653-.414 31.414z" fill="url(#g)" filter="url(#h)" opacity=".1"/><path d="m78.586 119.414s11.914-9.914 17.414-15.414 15.414-17.414 15.414-17.414-21.164 1.414-31.414 1.414c0 10.25-1.414 31.414-1.414 31.414z" fill="url(#i)"/></g><path d="m32 6.785161v34.367188h3.986328c7.603305.0108 13.207347-5.593091 13.197266-13.195313v-7.974609c.010802-7.603334-5.593075-13.207347-13.195313-13.197266zm.314453 81.88086c-.104697-.001728-.209625.006849-.314453.007812v11.326177h17.845703l-9.361328-8.191411a9.1838588 9.1838588 0 0 0 -.546875-.44336c-2.340981-1.75118-4.957258-2.655227-7.623047-2.699218z" fill="url(#l)"/><path d="m0 36.000004c0-11.01213 8.98787-20.03125 20-20.03125h20c2.11151-.0028 4.003 1.88849 4 4v8c.0028 2.11152-1.88849 4.003-4 4h-20c-2.24271 0-4 1.75729-4 4v20 30.09375 17.906246c0 2.24271 1.75729 4 4 4h12v-6.03125c.0018-1.4841.89133-2.930036 2.21875-3.593746s3.03036-.51398 4.21875.375l16 13.999996c.99402.74681 1.59375 1.97545 1.59375 3.21875s-.59973 2.47194-1.59375 3.21875l-16 14.00001c-.65388.49464-1.4619.78239-2.28125.8125-2.152767.0697-4.16025-1.87736-4.15625-4.03125v-5.96875h-11.96875c-11.012129 0-20.03125-8.98788-20.03125-20.00001v-17.687496-30.3125z" fill="url(#k)"/></g></svg>

<?xml version="1.0" encoding="UTF-8" standalone="no"?>
<svg
   xmlns:dc="http://purl.org/dc/elements/1.1/"
   xmlns:cc="http://creativecommons.org/ns#"
   xmlns:rdf="http://www.w3.org/1999/02/22-rdf-syntax-ns#"
   xmlns:svg="http://www.w3.org/2000/svg"
   xmlns="http://www.w3.org/2000/svg"
   xmlns:sodipodi="http://sodipodi.sourceforge.net/DTD/sodipodi-0.dtd"
   xmlns:inkscape="http://www.inkscape.org/namespaces/inkscape"
   height="16"
   width="16"
   version="1.1"
   id="svg132"
   sodipodi:docname="sc_insertendnote.svg"
   inkscape:version="0.92.4 (unknown)"
   inkscape:export-filename="/home/rizmut/Dokumen/Rizmut/Github/libreoffice-style-karasa-jaga/build/next/cmd/sc_insertendnote.png"
   inkscape:export-xdpi="96"
   inkscape:export-ydpi="96">
  <metadata
     id="metadata138">
    <rdf:RDF>
      <cc:Work
         rdf:about="">
        <dc:format>image/svg+xml</dc:format>
        <dc:type
           rdf:resource="http://purl.org/dc/dcmitype/StillImage" />
        <dc:title></dc:title>
      </cc:Work>
    </rdf:RDF>
  </metadata>
  <defs
     id="defs136" />
  <sodipodi:namedview
     pagecolor="#ffffff"
     bordercolor="#666666"
     borderopacity="1"
     objecttolerance="10"
     gridtolerance="10"
     guidetolerance="10"
     inkscape:pageopacity="0"
     inkscape:pageshadow="2"
     inkscape:window-width="1366"
     inkscape:window-height="706"
     id="namedview134"
     showgrid="true"
     inkscape:zoom="20.859651"
     inkscape:cx="12.251331"
     inkscape:cy="11.690203"
     inkscape:window-x="0"
     inkscape:window-y="0"
     inkscape:window-maximized="1"
     inkscape:current-layer="svg132">
    <inkscape:grid
       type="xygrid"
       id="grid945"
       spacingx="0.5"
       spacingy="0.5"
       empspacing="2" />
  </sodipodi:namedview>
  <filter
     id="a">
    <feGaussianBlur
       stdDeviation="1.0394514"
       id="feGaussianBlur2" />
  </filter>
  <filter
     id="b">
    <feGaussianBlur
       stdDeviation=".50063244"
       id="feGaussianBlur5" />
  </filter>
  <radialGradient
     id="c"
     cx="114"
     cy="112.3047"
     gradientUnits="userSpaceOnUse"
     r="139.5585"
     gradientTransform="translate(-4,4.000005)">
    <stop
       offset="0"
       stop-color="#00537d"
       id="stop8" />
    <stop
       offset=".0151"
       stop-color="#186389"
       id="stop10" />
    <stop
       offset=".0558"
       stop-color="#558ca8"
       id="stop12" />
    <stop
       offset=".0964"
       stop-color="#89afc3"
       id="stop14" />
    <stop
       offset=".1357"
       stop-color="#b3ccd8"
       id="stop16" />
    <stop
       offset=".1737"
       stop-color="#d4e2e9"
       id="stop18" />
    <stop
       offset=".2099"
       stop-color="#ecf2f5"
       id="stop20" />
    <stop
       offset=".2435"
       stop-color="#fafcfd"
       id="stop22" />
    <stop
       offset=".2722"
       stop-color="#fff"
       id="stop24" />
  </radialGradient>
  <radialGradient
     id="d"
     cx="102"
     cy="112.3047"
     gradientTransform="matrix(0.9787234,0,0,1.0334928,9.361704,0.382782)"
     gradientUnits="userSpaceOnUse"
     r="139.55859">
    <stop
       offset="0"
       stop-color="#535557"
       id="stop27" />
    <stop
       offset=".11366145"
       stop-color="#898a8c"
       id="stop29" />
    <stop
       offset=".20296688"
       stop-color="#ececec"
       id="stop31" />
    <stop
       offset=".2363"
       stop-color="#fafafa"
       id="stop33" />
    <stop
       offset=".2722"
       stop-color="#fff"
       id="stop35" />
    <stop
       offset=".5313"
       stop-color="#fafafa"
       id="stop37" />
    <stop
       offset=".8449"
       stop-color="#ebecec"
       id="stop39" />
    <stop
       offset="1"
       stop-color="#e1e2e3"
       id="stop41" />
  </radialGradient>
  <filter
     id="e"
     height="1.247155"
     width="1.247155"
     x="-0.123577"
     y="-0.123577">
    <feGaussianBlur
       stdDeviation="1.7720846"
       id="feGaussianBlur44" />
  </filter>
  <filter
     id="f">
    <feGaussianBlur
       stdDeviation=".90565481"
       id="feGaussianBlur47" />
  </filter>
  <linearGradient
     id="g"
     gradientUnits="userSpaceOnUse"
     x1="85.219681"
     x2="61.336319"
     y1="93.219681"
     y2="69.336319">
    <stop
       offset="0"
       id="stop50" />
    <stop
       offset="1"
       stop-color="#393b38"
       id="stop52" />
  </linearGradient>
  <filter
     id="h">
    <feGaussianBlur
       stdDeviation=".4901192"
       id="feGaussianBlur55" />
  </filter>
  <linearGradient
     id="i"
     gradientUnits="userSpaceOnUse"
     x1="96"
     x2="88.000198"
     y1="104"
     y2="96.000198">
    <stop
       offset="0"
       stop-color="#888a85"
       id="stop58" />
    <stop
       offset=".0072"
       stop-color="#8c8e89"
       id="stop60" />
    <stop
       offset=".0673"
       stop-color="#abaca9"
       id="stop62" />
    <stop
       offset=".1347"
       stop-color="#c5c6c4"
       id="stop64" />
    <stop
       offset=".2115"
       stop-color="#dbdbda"
       id="stop66" />
    <stop
       offset=".3012"
       stop-color="#ebebeb"
       id="stop68" />
    <stop
       offset=".4122"
       stop-color="#f7f7f6"
       id="stop70" />
    <stop
       offset=".5679"
       stop-color="#fdfdfd"
       id="stop72" />
    <stop
       offset="1"
       stop-color="#fff"
       id="stop74" />
  </linearGradient>
  <linearGradient
     id="j"
     gradientTransform="matrix(1.6875097,0,0,1.0285714,-170.44191,9.516101)"
     gradientUnits="userSpaceOnUse"
     x1="154.82304"
     x2="154.82304"
     y1="107.4149"
     y2="122.97046">
    <stop
       offset="0"
       stop-color="#4c78fd"
       id="stop77" />
    <stop
       offset="1"
       stop-color="#85a2fe"
       id="stop79" />
  </linearGradient>
  <linearGradient
     id="k"
     gradientTransform="rotate(-90,-14.639346,210.26801)"
     gradientUnits="userSpaceOnUse"
     x1="-0.37133601"
     x2="179.62866"
     y1="236.90735"
     y2="292.90735">
    <stop
       offset="0"
       stop-color="#8e79b9"
       id="stop82" />
    <stop
       offset="1"
       stop-color="#462886"
       id="stop84" />
  </linearGradient>
  <linearGradient
     id="l"
     gradientUnits="userSpaceOnUse"
     x1="52"
     x2="32"
     y1="48"
     y2="48"
     gradientTransform="translate(-4,5e-6)">
    <stop
       offset="0"
       stop-color="#fff"
       id="stop87" />
    <stop
       offset="1"
       stop-color="#fff"
       stop-opacity="0"
       id="stop89" />
  </linearGradient>
  <g
     id="g908"
     transform="scale(0.125)">
    <path
       style="opacity:0.71506898;filter:url(#a)"
       inkscape:connector-curvature="0"
       id="path92"
       transform="matrix(1.0416667,0,0,1.0357143,-1.958333,0.678466)"
       d="M 30.68,5.1379311 30.72082,101.68966 H 84.172 c 0.53,0 1.039,-0.211 1.414,-0.586 l 32.828,-32.828005 c 0.375,-0.375 0.586,-0.884 0.586,-1.414 V 5.1379311 Z" />
    <path
       style="opacity:0.83561599;fill:#757575;filter:url(#a)"
       inkscape:connector-curvature="0"
       id="path94"
       transform="matrix(1.0416667,0,0,1.0357143,-1.958333,0.678466)"
       d="M 32.6,6.1034483 32.64082,101.68966 H 84.172 c 0.53,0 1.039,-0.211 1.414,-0.586 13.296921,-8.210615 24.14086,-19.267845 32.828,-32.828005 0.375,-0.375 0.586,-0.884 0.586,-1.414 V 6.1034483 Z" />
    <path
       style="fill:#8e8e8e"
       inkscape:connector-curvature="0"
       id="path96"
       d="m 32,96.000005 h 52 v 4.000005 H 32 Z" />
    <path
       style="opacity:0.89589;filter:url(#b)"
       inkscape:connector-curvature="0"
       id="path98"
       transform="matrix(1.0416667,0,0,1.0357143,-1.958333,0.678466)"
       d="m 32.599999,10.931136 v 86.896555 l 50.996001,-1e-4 c 0.53,0 1.039,-0.211 1.414,-0.586 l 31.484,-31.765936 c 0.375,-0.375 0.586,-0.884 0.586,-1.414 V 10.931136 Z" />
    <path
       inkscape:connector-curvature="0"
       style="fill:url(#c)"
       id="path100"
       d="m 32.000002,8 v 96.00001 h 53.172 c 0.53,0 1.039,-0.211 1.414,-0.586 L 119.414,70.586 C 119.789,70.211 120,69.702 120,69.172 V 8 Z" />
    <path
       inkscape:connector-curvature="0"
       style="fill:url(#d);stroke-width:1.02597797"
       id="path102"
       d="m 40.678725,16.000005 c -0.539276,0 -0.978723,0.464038 -0.978723,1.033493 l 0.3,77.933012 c 0,0.570495 0.439447,1.033495 0.978723,1.033495 h 43.913022 c 0.257404,0 0.509915,-0.109547 0.691957,-0.302811 L 111.71323,68.085475 C 111.89626,67.892212 112,67.626605 112,67.354796 V 17.033498 c 0,-0.569455 -0.43847,-1.033493 -0.97872,-1.033493 z" />
    <path
       style="fill:#8e8e8e;stroke-width:0.90138787"
       inkscape:connector-curvature="0"
       id="path104"
       d="m 48,36 h 52 v 4 H 48 Z" />
    <path
       style="fill:#ff6600"
       inkscape:connector-curvature="0"
       id="path106"
       d="m 48,16 h 52 V 28 H 48 Z" />
    <path
       inkscape:connector-curvature="0"
       style="fill:url(#j);stroke-width:1.15044904"
       id="path108"
       d="M 62.9095,112 H 112 v 16 H 62.9095 Z" />
    <path
       d="m 48,52 h 52 v 4 H 48 Z"
       id="path110"
       inkscape:connector-curvature="0"
       style="fill:#8e8e8e;stroke-width:0.90138781" />
    <path
       d="m 48,68 h 52 v 4 H 48 Z"
       id="path112"
       inkscape:connector-curvature="0"
       style="fill:#8e8e8e;stroke-width:0.90138781" />
    <path
       d="m 48,84 h 46.511107 v 4 H 48 Z"
       id="path114"
       inkscape:connector-curvature="0"
       style="fill:#8e8e8e;stroke-width:0.90138781" />
    <g
       id="g126"
       transform="translate(8.000002,-17.999999)">
      <path
         style="opacity:0.90684904;filter:url(#e)"
         inkscape:connector-curvature="0"
         id="path118"
         d="M 111.414,86.586 C 111.664,86.336 85.035,85 80,85 c -1.654,0 -3,1.346 -3,3 0,5.035 1.336,31.664 1.586,31.414 z" />
      <path
         style="opacity:0.2;filter:url(#f)"
         inkscape:connector-curvature="0"
         id="path120"
         d="M 111.414,86.586 C 111.789,86.211 89.444,86 80,86 c -1.103,0 -2,0.897 -2,2 0,9.444 0.211,31.789 0.586,31.414 z" />
      <path
         inkscape:connector-curvature="0"
         style="opacity:0.1;fill:url(#g);filter:url(#h)"
         id="path122"
         d="M 111.414,86.586 C 111.653,86.347 89.807,87 80,87 c -0.553,0 -1,0.447 -1,1 0,9.807 -0.653,31.653 -0.414,31.414 z" />
      <path
         inkscape:connector-curvature="0"
         style="fill:url(#i)"
         id="path124"
         d="m 78.586,119.414 c 0,0 11.914,-9.914 17.414,-15.414 5.5,-5.5 15.414,-17.414 15.414,-17.414 0,0 -21.164,1.414 -31.414,1.414 0,10.25 -1.414,31.414 -1.414,31.414 z" />
    </g>
    <path
       inkscape:connector-curvature="0"
       style="fill:url(#l)"
       id="path128"
       d="m 32,6.785161 v 34.367188 h 3.986328 c 7.603305,0.0108 13.207347,-5.593091 13.197266,-13.195313 V 19.982427 C 49.194396,12.379093 43.590519,6.77508 35.988281,6.785161 Z m 0.314453,81.88086 C 32.209756,88.664293 32.104828,88.67287 32,88.673833 V 100.00001 H 49.845703 L 40.484375,91.808599 A 9.1838588,9.1838588 0 0 0 39.9375,91.365239 c -2.340981,-1.75118 -4.957258,-2.655227 -7.623047,-2.699218 z" />
    <path
       id="path130"
       d="m 0,36.000004 c 0,-11.01213 8.98787,-20.03125 20,-20.03125 h 20 c 2.11151,-0.0028 4.003,1.88849 4,4 v 8 c 0.0028,2.11152 -1.88849,4.003 -4,4 H 20 c -2.24271,0 -4,1.75729 -4,4 v 20 30.09375 17.906246 c 0,2.24271 1.75729,4 4,4 h 12 v -6.03125 c 0.0018,-1.4841 0.89133,-2.930036 2.21875,-3.593746 1.32742,-0.66371 3.03036,-0.51398 4.21875,0.375 l 16,13.999996 c 0.99402,0.74681 1.59375,1.97545 1.59375,3.21875 0,1.2433 -0.59973,2.47194 -1.59375,3.21875 l -16,14.00001 c -0.65388,0.49464 -1.4619,0.78239 -2.28125,0.8125 C 34.003483,134.03846 31.996,132.0914 32,129.93751 v -5.96875 H 20.03125 C 9.019121,123.96876 0,114.98088 0,103.96875 v -17.687496 -30.3125 z"
       style="fill:url(#k)"
       inkscape:connector-curvature="0" />
  </g>
</svg>
